#define clock_icon_width 64
#define clock_icon_height 64
static char clock_icon_bits[] = {
   0xff, 0xff, 0xff, 0xff, 0xff, 0xff, 0xff, 0xff, 0x01, 0x00, 0x00, 0x00,
   0x00, 0x00, 0x00, 0x80, 0x01, 0x00, 0x06, 0x00, 0x00, 0x00, 0x3c, 0x80,
   0x01, 0x83, 0x01, 0x00, 0x00, 0x38, 0xc0, 0x80, 0x81, 0x40, 0xc0, 0x07,
   0x7c, 0x40, 0x00, 0x81, 0x81, 0x20, 0x30, 0x18, 0x83, 0x81, 0x01, 0x82,
   0x41, 0x10, 0x08, 0xa0, 0x00, 0x02, 0x01, 0x82, 0x41, 0x10, 0x04, 0x40,
   0x00, 0x04, 0x02, 0x82, 0x41, 0x10, 0x04, 0x40, 0x00, 0x04, 0x02, 0x82,
   0x81, 0x10, 0x82, 0xff, 0x7f, 0x08, 0x02, 0x81, 0x01, 0x00, 0xe2, 0x18,
   0x80, 0x0b, 0x01, 0x80, 0x01, 0x00, 0x1a, 0x06, 0x00, 0x0c, 0x00, 0x80,
   0x01, 0x00, 0x06, 0x01, 0x00, 0x18, 0x00, 0x80, 0x01, 0x00, 0xc3, 0x00,
   0x00, 0x60, 0x00, 0x80, 0x01, 0x80, 0x20, 0x00, 0x00, 0x80, 0x00, 0x80,
   0x01, 0x40, 0x10, 0x00, 0x00, 0x00, 0x01, 0x80, 0x01, 0x20, 0x08, 0x00,
   0x00, 0x00, 0x02, 0x80, 0x01, 0x20, 0xe8, 0x07, 0x00, 0x00, 0x02, 0x80,
   0x01, 0x10, 0xe4, 0x00, 0x00, 0x00, 0x04, 0x80, 0x01, 0x08, 0xe2, 0x07,
   0x00, 0x00, 0x08, 0x80, 0x01, 0x08, 0x22, 0x1c, 0x00, 0x00, 0x08, 0x80,
   0x01, 0x04, 0x21, 0x10, 0x00, 0x00, 0x10, 0x80, 0x01, 0x04, 0x01, 0x10,
   0x00, 0x00, 0x10, 0x80, 0x01, 0x04, 0x01, 0x0c, 0x00, 0x00, 0x10, 0x80,
   0x01, 0x82, 0x00, 0x04, 0x00, 0x00, 0x20, 0x80, 0x01, 0x82, 0x00, 0x04,
   0x00, 0x60, 0x24, 0x80, 0x01, 0x82, 0x00, 0x08, 0x1c, 0x98, 0x25, 0x80,
   0x01, 0x82, 0x00, 0xe0, 0x3f, 0x04, 0x26, 0x80, 0x01, 0x82, 0x00, 0x00,
   0x7e, 0x84, 0x27, 0x80, 0x01, 0x82, 0x00, 0x00, 0xbe, 0x03, 0x20, 0x80,
   0x01, 0x82, 0x00, 0x00, 0x1c, 0x00, 0x20, 0x80, 0x01, 0x82, 0x00, 0x00,
   0x00, 0x00, 0x20, 0x80, 0x01, 0x82, 0x00, 0x00, 0x00, 0x00, 0x20, 0x80,
   0x01, 0x04, 0x01, 0x00, 0x00, 0x00, 0x10, 0x80, 0x01, 0x04, 0x01, 0x00,
   0x00, 0x00, 0x10, 0x80, 0x01, 0x04, 0x01, 0x00, 0x00, 0x00, 0x10, 0x80,
   0x01, 0x08, 0x02, 0x00, 0x00, 0x00, 0x08, 0x80, 0x01, 0x08, 0x02, 0x00,
   0x00, 0x00, 0x08, 0x80, 0x01, 0x10, 0x04, 0x00, 0x00, 0x00, 0x04, 0x80,
   0x01, 0x20, 0x08, 0x00, 0x00, 0x00, 0x02, 0x80, 0x01, 0x20, 0x08, 0x00,
   0x00, 0x00, 0x02, 0x80, 0x01, 0x40, 0x10, 0x00, 0x00, 0x00, 0x01, 0x80,
   0x01, 0x80, 0x20, 0x00, 0x00, 0x80, 0x00, 0x80, 0x01, 0x00, 0xc3, 0x00,
   0x00, 0x60, 0x00, 0x80, 0x01, 0x00, 0x04, 0x01, 0x00, 0x10, 0x00, 0x80,
   0x01, 0x00, 0x18, 0x06, 0x00, 0x0c, 0x00, 0x80, 0x01, 0x00, 0xe0, 0x18,
   0x80, 0x03, 0x00, 0x80, 0x01, 0x00, 0x00, 0xff, 0x7f, 0x00, 0x00, 0x80,
   0x01, 0xfc, 0x00, 0x10, 0x04, 0x00, 0x00, 0x80, 0x01, 0x03, 0x01, 0x10,
   0x04, 0x00, 0x00, 0x80, 0xc1, 0x00, 0x06, 0x10, 0x0c, 0x00, 0x00, 0x80,
   0x41, 0x00, 0x08, 0x08, 0x08, 0x00, 0x00, 0x80, 0x41, 0x00, 0x18, 0x08,
   0x18, 0xe0, 0x07, 0x80, 0x81, 0x00, 0x67, 0x0c, 0x10, 0x18, 0x18, 0x80,
   0x01, 0xff, 0x80, 0x07, 0x20, 0x0c, 0x10, 0x80, 0x01, 0x00, 0x00, 0x00,
   0x40, 0x02, 0x10, 0x80, 0x01, 0x00, 0x00, 0x00, 0x80, 0x02, 0x10, 0x80,
   0x01, 0x00, 0x00, 0x00, 0x00, 0x03, 0x08, 0x80, 0x01, 0x00, 0x00, 0x00,
   0x00, 0x0e, 0x06, 0x80, 0x01, 0x00, 0x00, 0x00, 0x00, 0xf8, 0x01, 0x80,
   0x01, 0x00, 0x00, 0x00, 0x00, 0x00, 0x00, 0x80, 0x01, 0x00, 0x00, 0x00,
   0x00, 0x00, 0x00, 0x80, 0x01, 0x00, 0x00, 0x00, 0x00, 0x00, 0x00, 0x80,
   0xff, 0xff, 0xff, 0xff, 0xff, 0xff, 0xff, 0xff};
