#define cmdtool_width 64
#define cmdtool_height 64
static char cmdtool_bits[] = {
 0xff,0xff,0xff,0xff,0xff,0xff,0xff,0xff,0x01,0x04,0x00,0x00,0x00,0x00,0x00,
 0x80,0x21,0x04,0x00,0x00,0x00,0xff,0x07,0x80,0x71,0x04,0x00,0x00,0xc0,0x45,
 0x1e,0x80,0xf9,0x04,0x00,0x00,0x60,0x84,0x30,0x80,0x01,0x04,0x00,0x00,0xb0,
 0x48,0xe8,0x80,0x55,0x05,0x00,0x00,0x18,0xc9,0xc8,0x81,0xa9,0xf4,0x01,0x00,
 0x0c,0x21,0x85,0x83,0x55,0xfd,0x07,0x00,0x22,0x19,0x26,0x83,0xa9,0x6c,0x1f,
 0x00,0x23,0x09,0x04,0x87,0x55,0xfd,0x7d,0x00,0x09,0x04,0x88,0x8c,0xa9,0xc4,
 0xf7,0x01,0x51,0x02,0x50,0x8c,0x55,0x05,0xdf,0x07,0x01,0x01,0x20,0x9c,0xa9,
 0x04,0x7c,0xff,0x8d,0x00,0xc0,0x99,0x55,0x05,0xf0,0xfd,0x60,0x00,0x80,0xb8,
 0xa9,0x04,0xc0,0xf7,0x31,0x00,0x00,0xb1,0x55,0x25,0x00,0xff,0x17,0x00,0x00,
 0xb2,0xa9,0x84,0x00,0xfc,0x8f,0x01,0x00,0xb6,0x55,0x05,0x00,0x00,0xc4,0x01,
 0x00,0xb1,0xa9,0x04,0x00,0x00,0xe3,0x00,0x80,0xe0,0x55,0x6d,0x80,0xff,0x71,
 0x0c,0x40,0xf0,0xa9,0x84,0x2f,0x80,0x38,0x0e,0x60,0xe0,0x55,0x05,0x00,0xa0,
 0x18,0x07,0x50,0xe0,0xa9,0x04,0x00,0x10,0x81,0x63,0x88,0xe0,0x55,0x05,0x00,
 0x0c,0xc2,0x71,0x04,0xe3,0xa9,0x04,0x00,0x07,0xc5,0x38,0x02,0xe4,0x55,0x05,
 0xdb,0x80,0x08,0x1c,0x0d,0xf0,0xa9,0x64,0x00,0x40,0x18,0x8e,0x10,0xf0,0x55,
 0x15,0x00,0x20,0x3c,0x46,0x10,0xe0,0xa9,0x14,0x00,0x21,0x5e,0x20,0x20,0xe0,
 0x55,0x0d,0x80,0x00,0x8f,0x10,0x20,0xb0,0xa9,0x0c,0x08,0x90,0x03,0x19,0x40,
 0xb0,0x55,0x05,0x04,0xc8,0x09,0x16,0x81,0xb8,0xa9,0x04,0x03,0xe0,0x00,0x01,
 0x02,0x99,0x55,0x85,0x00,0xf2,0x08,0x10,0x02,0x8c,0xa9,0x04,0x80,0x71,0x08,
 0x11,0x02,0x84,0x55,0x45,0x40,0x38,0x08,0x10,0x00,0x86,0xa9,0x4c,0x00,0x38,
 0x08,0x00,0x04,0x83,0x55,0x1d,0x20,0x18,0x00,0x10,0x18,0x83,0xa9,0x34,0x20,
 0x1c,0x04,0x11,0xc0,0x81,0x55,0xf5,0x20,0x1c,0x00,0x61,0xc0,0x80,0xa9,0xc4,
 0x21,0x1c,0x04,0x81,0x70,0xc0,0x55,0x05,0x27,0x18,0x08,0x02,0x38,0xe0,0xa9,
 0x04,0x0e,0x38,0x10,0x04,0x1e,0xf0,0x01,0x04,0x1c,0x38,0x10,0x88,0x07,0xb8,
 0xf9,0x04,0x70,0x70,0x20,0xe0,0x01,0x9c,0x71,0x04,0xe0,0x71,0x00,0xfc,0x00,
 0x8e,0x21,0x04,0x00,0xff,0xff,0x1f,0x00,0x87,0x01,0x04,0x00,0xfc,0xff,0x03,
 0x80,0x83,0xff,0x07,0x00,0xc0,0x01,0x00,0xc0,0x81,0x01,0x00,0x00,0x80,0x03,
 0x00,0xe0,0x80,0x01,0x00,0x00,0x00,0x07,0x00,0x70,0x80,0x01,0x00,0x00,0x00,
 0x1e,0x00,0x3c,0x80,0x01,0x00,0x00,0x00,0x7c,0x00,0x1f,0x80,0x01,0x00,0x00,
 0x00,0xf0,0xff,0x07,0x80,0x01,0x00,0x00,0x00,0xc0,0xff,0x01,0x80,0x01,0x00,
 0x00,0x00,0x00,0x00,0x00,0x80,0x01,0x00,0x00,0x00,0x00,0x00,0x00,0x80,0x01,
 0x00,0x00,0x00,0x00,0x00,0x00,0x80,0x01,0x00,0x00,0x00,0x00,0x00,0x00,0x80,
 0x01,0x00,0x00,0x00,0x00,0x00,0x00,0x80,0x01,0x00,0x00,0x00,0x00,0x00,0x00,
 0x80,0x01,0x00,0x00,0x00,0x00,0x00,0x00,0x80,0xff,0xff,0xff,0xff,0xff,0xff,
 0xff,0xff};
