#define emacs1_width 48
#define emacs1_height 56
static char emacs1_bits[] = {
   0xff, 0xff, 0xff, 0xff, 0xff, 0xff, 0x01, 0x00, 0x00, 0x01, 0x00, 0x80,
   0x01, 0x00, 0x00, 0x00, 0x00, 0x80, 0xf9, 0xbc, 0x01, 0xbd, 0x83, 0x80,
   0x01, 0x00, 0x00, 0x00, 0x00, 0x80, 0xe1, 0x63, 0x79, 0x01, 0xc0, 0x81,
   0x01, 0x00, 0x00, 0x00, 0x00, 0x80, 0xa1, 0x7f, 0x0d, 0xd5, 0xd0, 0x8f,
   0x01, 0x00, 0x00, 0x00, 0x00, 0x80, 0x79, 0x00, 0x00, 0x91, 0x4c, 0x84,
   0x21, 0xcd, 0x24, 0xa0, 0x52, 0x85, 0x11, 0x55, 0x29, 0x41, 0x8c, 0x82,
   0x79, 0xcd, 0x10, 0x20, 0x00, 0x80, 0x01, 0x44, 0x08, 0x01, 0x00, 0x80,
   0x01, 0x00, 0x00, 0xfc, 0x85, 0x86, 0xf9, 0xcd, 0x0e, 0x01, 0x00, 0x80,
   0x01, 0x00, 0x00, 0x00, 0xce, 0x80, 0x01, 0x00, 0x00, 0x01, 0x00, 0x80,
   0xff, 0xff, 0xff, 0xff, 0xff, 0xff, 0x87, 0xac, 0xfd, 0xff, 0xff, 0xff,
   0xf7, 0xa8, 0xfd, 0xff, 0xff, 0xff, 0x95, 0xaa, 0xcd, 0xcc, 0xcc, 0xfc,
   0xb7, 0xa2, 0xfd, 0xff, 0xff, 0xff, 0x87, 0x26, 0xfc, 0xff, 0xff, 0xff,
   0xff, 0xff, 0xff, 0xff, 0xff, 0xff, 0x01, 0x00, 0x00, 0x00, 0x00, 0x80,
   0x01, 0x00, 0x00, 0x00, 0x00, 0x80, 0x01, 0x00, 0x00, 0x00, 0x00, 0x80,
   0x01, 0x00, 0x00, 0x00, 0x00, 0x80, 0x01, 0x00, 0x00, 0x00, 0x00, 0x80,
   0x01, 0x00, 0x00, 0x00, 0x00, 0x80, 0x01, 0x00, 0x00, 0x00, 0x00, 0x80,
   0x01, 0x00, 0x00, 0x00, 0x00, 0x80, 0x01, 0x00, 0x00, 0x00, 0x00, 0x80,
   0x01, 0x00, 0x00, 0x00, 0x00, 0x80, 0x01, 0x00, 0x00, 0x00, 0x00, 0x80,
   0x01, 0x00, 0x00, 0x00, 0x00, 0x80, 0x01, 0x00, 0x00, 0x00, 0x00, 0x80,
   0x01, 0x00, 0x00, 0x00, 0x00, 0x80, 0x01, 0x00, 0x00, 0x00, 0x00, 0x80,
   0x01, 0x00, 0x00, 0x00, 0x00, 0x80, 0x01, 0x00, 0x00, 0x00, 0x00, 0x80,
   0x01, 0x00, 0x00, 0x00, 0x00, 0x80, 0x01, 0x00, 0x00, 0x00, 0x00, 0x80,
   0xff, 0xff, 0xff, 0xff, 0xff, 0xff, 0x47, 0x12, 0x22, 0xfe, 0xff, 0xff,
   0x77, 0xd0, 0xba, 0xff, 0xff, 0xff, 0x65, 0xd5, 0x3a, 0x66, 0x66, 0xf2,
   0x77, 0x15, 0xfa, 0xfe, 0xff, 0xff, 0x47, 0xd5, 0x22, 0xfe, 0xff, 0xff,
   0xff, 0xff, 0xff, 0xff, 0xff, 0xff, 0x01, 0x00, 0x00, 0x00, 0x00, 0x80,
   0x01, 0x00, 0x00, 0x00, 0x00, 0x80, 0x01, 0x00, 0x00, 0x00, 0x00, 0x80,
   0x01, 0x00, 0x00, 0x00, 0x00, 0x80, 0xff, 0xff, 0xff, 0xff, 0xff, 0xff};
