#define ez_width 48
#define ez_height 48
static char ez_bits[] = {
   0xff, 0xff, 0xff, 0xff, 0xff, 0xff, 0xff, 0xff, 0xff, 0xff, 0xff, 0xff,
   0xff, 0xff, 0xff, 0xff, 0xff, 0xff, 0x07, 0x00, 0xf8, 0xff, 0xff, 0xff,
   0x07, 0x00, 0xf8, 0xff, 0xff, 0xff, 0xc7, 0xff, 0xf9, 0xff, 0xff, 0xff,
   0xe7, 0xff, 0xfb, 0xff, 0xff, 0xff, 0xe7, 0xff, 0xfb, 0xff, 0xff, 0xff,
   0xe7, 0xff, 0xff, 0xff, 0xff, 0xff, 0xe7, 0xdf, 0xff, 0xff, 0xff, 0xff,
   0xe7, 0xdf, 0xff, 0xff, 0xff, 0xff, 0xe7, 0xcf, 0xff, 0xff, 0xff, 0xff,
   0x07, 0xc0, 0xff, 0xff, 0xff, 0xff, 0x07, 0xc0, 0xff, 0xff, 0xff, 0xff,
   0xe7, 0xcf, 0xff, 0xff, 0xff, 0xff, 0xe7, 0xdf, 0xff, 0xff, 0xff, 0xff,
   0xe7, 0xdf, 0xff, 0xff, 0xff, 0xff, 0xe7, 0xff, 0xff, 0xff, 0xff, 0xff,
   0xe7, 0xff, 0xfb, 0xff, 0xff, 0xff, 0xe7, 0xff, 0xfb, 0xff, 0xff, 0xff,
   0xc7, 0xff, 0xf9, 0xff, 0xff, 0xff, 0x07, 0x00, 0x00, 0x00, 0x00, 0xe0,
   0x07, 0x00, 0x00, 0x00, 0x00, 0xe0, 0xff, 0xff, 0xff, 0xf9, 0xff, 0xe3,
   0xff, 0xff, 0xff, 0xfd, 0xff, 0xf1, 0xff, 0xff, 0xff, 0xfd, 0xff, 0xf8,
   0xff, 0xff, 0xff, 0xff, 0x7f, 0xfc, 0xff, 0xff, 0xff, 0xff, 0x3f, 0xfe,
   0xff, 0xff, 0xff, 0xff, 0x1f, 0xff, 0xff, 0xff, 0xff, 0xff, 0x8f, 0xff,
   0xff, 0xff, 0xff, 0xff, 0xc7, 0xff, 0xff, 0xff, 0xff, 0xff, 0xe3, 0xff,
   0xff, 0xff, 0xff, 0xff, 0xf1, 0xff, 0xff, 0xff, 0xff, 0xff, 0xf8, 0xff,
   0xff, 0xff, 0xff, 0x7f, 0xfc, 0xff, 0xff, 0xff, 0xff, 0x3f, 0xfe, 0xff,
   0xff, 0xff, 0xff, 0x1f, 0xff, 0xef, 0xff, 0xff, 0xff, 0x8f, 0xff, 0xef,
   0xff, 0xff, 0xff, 0xc7, 0xff, 0xe7, 0xff, 0xff, 0xff, 0x03, 0x00, 0xe0,
   0xff, 0xff, 0xff, 0x01, 0x00, 0xe0, 0xff, 0xff, 0xff, 0xff, 0xff, 0xff,
   0xff, 0xff, 0xff, 0xff, 0xff, 0xff, 0xff, 0xff, 0xff, 0xff, 0xff, 0xff,
   0xff, 0xff, 0xff, 0xff, 0xff, 0xff, 0xff, 0xff, 0xff, 0xff, 0xff, 0xff,
   0xff, 0xff, 0xff, 0xff, 0xff, 0xff, 0xff, 0xff, 0xff, 0xff, 0xff, 0xff};
