#define noname_width 64
#define noname_height 64
static char noname_bits[] = {
    0xff, 0xff, 0xff, 0xff, 0xff, 0xff, 0xff, 0xff, 0x01, 0x00, 0x00, 0x00, 
    0x00, 0x00, 0x00, 0x80, 0x01, 0x00, 0x00, 0x00, 0x00, 0x00, 0x00, 0x80, 
    0x01, 0x00, 0x00, 0x00, 0x00, 0x00, 0x00, 0x80, 0x01, 0x00, 0x00, 0x00, 
    0x00, 0x00, 0x00, 0x80, 0x01, 0x00, 0x00, 0x00, 0x00, 0x00, 0x00, 0x80, 
    0x01, 0x00, 0x00, 0x00, 0x00, 0x00, 0x00, 0x80, 0x01, 0x00, 0x00, 0x00, 
    0x00, 0x00, 0x00, 0x80, 0x01, 0x00, 0x00, 0x00, 0x00, 0x00, 0x00, 0x80, 
    0x01, 0x00, 0x00, 0x00, 0x00, 0x00, 0x00, 0x80, 0x01, 0x00, 0x00, 0x00, 
    0x00, 0x00, 0x00, 0x80, 0x01, 0x00, 0x00, 0x00, 0x00, 0x00, 0x00, 0x80, 
    0x01, 0x00, 0x00, 0x00, 0x00, 0x00, 0x00, 0x80, 0x01, 0x00, 0x00, 0x00, 
    0x00, 0x00, 0x00, 0x80, 0x01, 0x00, 0x00, 0x00, 0x00, 0x00, 0x00, 0x80, 
    0x01, 0x00, 0x00, 0x00, 0x00, 0x00, 0x00, 0x80, 0x01, 0x00, 0x00, 0x00, 
    0x00, 0x00, 0x00, 0x80, 0x01, 0x00, 0x00, 0x00, 0x00, 0x00, 0x00, 0x80, 
    0x01, 0x00, 0x00, 0x00, 0x00, 0x00, 0x00, 0x80, 0xf9, 0xff, 0xff, 0xff, 
    0xff, 0xff, 0xff, 0x9f, 0x09, 0x00, 0x00, 0x00, 0x00, 0x00, 0x00, 0x90, 
    0x09, 0x00, 0x60, 0x00, 0x00, 0x02, 0x00, 0x90, 0x09, 0x00, 0x60, 0x00, 
    0x00, 0x02, 0x00, 0x90, 0x09, 0x00, 0x50, 0x00, 0x00, 0x85, 0x00, 0x90, 
    0x09, 0x00, 0x90, 0x00, 0x00, 0x45, 0x21, 0x90, 0x09, 0x00, 0x90, 0x00, 
    0x00, 0x25, 0x51, 0x90, 0x09, 0x00, 0x90, 0x00, 0x00, 0x25, 0x52, 0x90, 
    0x09, 0x00, 0x90, 0x00, 0x80, 0x18, 0x8a, 0x90, 0x09, 0x40, 0x08, 0x01, 
    0x80, 0x08, 0x8c, 0x90, 0x09, 0xc0, 0x08, 0x01, 0x80, 0x00, 0x04, 0x91, 
    0x09, 0xa0, 0x08, 0x01, 0x48, 0x00, 0x00, 0x91, 0x09, 0x20, 0x09, 0x41, 
    0x48, 0x00, 0x00, 0x91, 0x09, 0x14, 0x09, 0xc2, 0x54, 0x00, 0x00, 0x92, 
    0x09, 0x14, 0x0a, 0x22, 0x55, 0x00, 0x00, 0x92, 0x09, 0x1a, 0x06, 0x22, 
    0x23, 0x00, 0x00, 0x94, 0x09, 0x0a, 0x04, 0x3c, 0x22, 0x00, 0x00, 0x94, 
    0xf9, 0x0b, 0x04, 0x00, 0x00, 0x00, 0x00, 0x90, 0x09, 0x00, 0x00, 0x00, 
    0x00, 0x00, 0x00, 0x90, 0xf9, 0xff, 0xff, 0xff, 0xff, 0xff, 0xff, 0x9f, 
    0x01, 0x00, 0x00, 0x00, 0x00, 0x00, 0x00, 0x80, 0x01, 0x00, 0x00, 0x00, 
    0x80, 0x00, 0x01, 0x80, 0x01, 0x80, 0x89, 0x6c, 0xdc, 0x99, 0x03, 0x80, 
    0x01, 0x40, 0x52, 0x92, 0x82, 0x20, 0x01, 0x80, 0x01, 0x40, 0x52, 0x92, 
    0x8c, 0x38, 0x01, 0x80, 0x01, 0x80, 0x23, 0x92, 0x90, 0x24, 0x01, 0x80, 
    0x01, 0x00, 0x22, 0x92, 0x8e, 0x38, 0x01, 0x80, 0x01, 0x40, 0x02, 0x00, 
    0x00, 0x00, 0x00, 0x80, 0x01, 0x80, 0x01, 0x00, 0x00, 0x00, 0x00, 0x80, 
    0x01, 0x00, 0x00, 0x00, 0x00, 0x00, 0x00, 0x80, 0x01, 0x00, 0x00, 0x00, 
    0x00, 0x00, 0x00, 0x80, 0x01, 0x00, 0x00, 0x00, 0x00, 0x00, 0x00, 0x80, 
    0x01, 0x00, 0x00, 0x00, 0x00, 0x00, 0x00, 0x80, 0x01, 0x00, 0x00, 0x00, 
    0x00, 0x00, 0x00, 0x80, 0x01, 0x00, 0x00, 0x00, 0x00, 0x00, 0x00, 0x80, 
    0x01, 0x00, 0x00, 0x00, 0x00, 0x00, 0x00, 0x80, 0x01, 0x00, 0x00, 0x00, 
    0x00, 0x00, 0x00, 0x80, 0x01, 0x00, 0x00, 0x00, 0x00, 0x00, 0x00, 0x80, 
    0x01, 0x00, 0x00, 0x00, 0x00, 0x00, 0x00, 0x80, 0x01, 0x00, 0x00, 0x00, 
    0x00, 0x00, 0x00, 0x80, 0x01, 0x00, 0x00, 0x00, 0x00, 0x00, 0x00, 0x80, 
    0x01, 0x00, 0x00, 0x00, 0x00, 0x00, 0x00, 0x80, 0x01, 0x00, 0x00, 0x00, 
    0x00, 0x00, 0x00, 0x80, 0x01, 0x00, 0x00, 0x00, 0x00, 0x00, 0x00, 0x80, 
    0xff, 0xff, 0xff, 0xff, 0xff, 0xff, 0xff, 0xff};
