#define noname_width 64
#define noname_height 64
static char noname_bits[] = {
    0xff, 0xff, 0xff, 0xff, 0xff, 0xff, 0xff, 0xff, 0x01, 0x00, 0x00, 0x00, 
    0x00, 0x00, 0x00, 0x80, 0x01, 0x00, 0x00, 0x00, 0x00, 0x00, 0x00, 0x80, 
    0xc1, 0xff, 0xff, 0xff, 0xff, 0xff, 0x7f, 0x80, 0x21, 0x00, 0x00, 0x00, 
    0x00, 0x00, 0x84, 0x81, 0x11, 0x00, 0x00, 0x00, 0x00, 0x00, 0x08, 0x82, 
    0x11, 0xff, 0xff, 0xff, 0xff, 0xff, 0x13, 0x84, 0x91, 0x00, 0x00, 0x00, 
    0x00, 0x00, 0x24, 0x88, 0x91, 0x00, 0x00, 0x00, 0x00, 0x00, 0x24, 0x88, 
    0x91, 0x00, 0x00, 0x00, 0x00, 0x00, 0x24, 0x88, 0x91, 0x00, 0x00, 0x00, 
    0x00, 0x00, 0x24, 0x88, 0x91, 0x00, 0x00, 0x00, 0x00, 0x00, 0x24, 0x88, 
    0x91, 0x00, 0x00, 0x00, 0x00, 0x00, 0x24, 0x88, 0x91, 0x00, 0x00, 0x00, 
    0x00, 0x00, 0x24, 0x88, 0x91, 0x00, 0x00, 0x00, 0x00, 0x00, 0x24, 0x88, 
    0x91, 0x00, 0x00, 0x00, 0x00, 0x00, 0x24, 0x88, 0x91, 0x00, 0x00, 0x00, 
    0x00, 0x00, 0x24, 0x88, 0x91, 0x00, 0x00, 0x00, 0x00, 0x00, 0x24, 0x88, 
    0x91, 0x00, 0x00, 0x00, 0x00, 0x00, 0x24, 0x88, 0x91, 0x00, 0x00, 0x00, 
    0x00, 0x00, 0x24, 0x88, 0x91, 0x00, 0x00, 0x00, 0x00, 0x00, 0x24, 0x88, 
    0x91, 0x00, 0x00, 0x00, 0x00, 0x00, 0x24, 0x88, 0x91, 0x00, 0x00, 0x00, 
    0x00, 0x00, 0x24, 0x88, 0x91, 0x00, 0x00, 0x00, 0x00, 0x00, 0x24, 0x88, 
    0x91, 0x00, 0x00, 0x00, 0x00, 0x00, 0x24, 0x88, 0x91, 0x00, 0x00, 0x00, 
    0x00, 0x00, 0x24, 0x88, 0x91, 0x00, 0x00, 0x00, 0x00, 0x00, 0x24, 0x88, 
    0x91, 0x00, 0x00, 0x00, 0x00, 0x00, 0x24, 0x88, 0x91, 0x00, 0x00, 0x00, 
    0x00, 0x00, 0x24, 0x88, 0x91, 0x00, 0x00, 0x00, 0x00, 0x00, 0x24, 0x88, 
    0x11, 0xff, 0xff, 0xff, 0xff, 0xff, 0x23, 0x88, 0x11, 0x00, 0x00, 0x00, 
    0x00, 0x00, 0x20, 0x88, 0xe1, 0xff, 0xff, 0xff, 0xff, 0xff, 0x3f, 0x88, 
    0x41, 0x00, 0x00, 0x00, 0x00, 0x00, 0xc0, 0x88, 0x81, 0x00, 0x00, 0x00, 
    0x00, 0x00, 0x00, 0x8b, 0x01, 0x01, 0x80, 0x00, 0x01, 0x00, 0x00, 0x8c, 
    0x01, 0xfe, 0x7f, 0x81, 0xfe, 0xff, 0xff, 0x87, 0x01, 0x00, 0x00, 0x81, 
    0x00, 0x00, 0x00, 0x80, 0x01, 0x00, 0x00, 0x81, 0x00, 0x00, 0x00, 0x80, 
    0x01, 0x00, 0x00, 0x81, 0x00, 0x00, 0xc0, 0x8f, 0x01, 0x00, 0x00, 0x81, 
    0x00, 0x00, 0x20, 0x90, 0x01, 0xff, 0xff, 0x81, 0xff, 0xff, 0xff, 0xa3, 
    0x81, 0x00, 0x00, 0x00, 0x00, 0x00, 0x00, 0xa6, 0x41, 0x00, 0x00, 0x00, 
    0x00, 0x00, 0x00, 0xa5, 0x21, 0x00, 0x00, 0x00, 0x00, 0x00, 0x80, 0xa4, 
    0xe1, 0xff, 0xff, 0xff, 0xff, 0xff, 0x7f, 0xa4, 0x11, 0x00, 0x00, 0x00, 
    0x00, 0x00, 0x80, 0xa4, 0x11, 0x00, 0x10, 0x11, 0x07, 0x00, 0x80, 0xa4, 
    0x11, 0x00, 0x10, 0x91, 0x08, 0x00, 0x80, 0xa4, 0x11, 0x00, 0xf0, 0x11, 
    0x0f, 0x00, 0x80, 0xa4, 0x11, 0x00, 0x10, 0x11, 0x08, 0x00, 0x80, 0xa2, 
    0x11, 0x00, 0x10, 0x11, 0x07, 0x00, 0x80, 0xa1, 0x11, 0x00, 0x00, 0x00, 
    0x00, 0x00, 0x80, 0x90, 0xe1, 0xff, 0xff, 0xff, 0xff, 0xff, 0x7f, 0x90, 
    0x01, 0x00, 0x00, 0x00, 0x00, 0x00, 0x00, 0x88, 0x01, 0x00, 0x00, 0x00, 
    0xf0, 0x01, 0x00, 0x88, 0x01, 0x00, 0x00, 0x00, 0x0f, 0x02, 0x00, 0x86, 
    0x01, 0x00, 0x00, 0x00, 0x08, 0x04, 0xe0, 0x83, 0x01, 0x00, 0x00, 0x00, 
    0x08, 0x1c, 0x3c, 0x80, 0x01, 0x00, 0x00, 0x00, 0x0f, 0xe2, 0x07, 0x80, 
    0x01, 0x00, 0x00, 0x00, 0xf0, 0x01, 0x00, 0x80, 0x01, 0x00, 0x00, 0x00, 
    0x00, 0x00, 0x00, 0x80, 0x01, 0x00, 0x00, 0x00, 0x00, 0x00, 0x00, 0x80, 
    0xff, 0xff, 0xff, 0xff, 0xff, 0xff, 0xff, 0xff};
