#define iconedit_width 64
#define iconedit_height 64
static char iconedit_bits[] = {
 0xf9,0xff,0xff,0xff,0xff,0xff,0xff,0x1f,0xff,0xff,0xff,0xff,0xff,0xff,0xff,
 0x7f,0xfe,0xff,0xff,0xff,0xff,0xff,0xff,0x7f,0x0f,0x00,0x00,0x00,0x00,0x00,
 0x00,0xf0,0x07,0x00,0x00,0x00,0x00,0x00,0x00,0xe0,0x07,0x00,0x00,0x80,0x01,
 0x00,0x00,0xe0,0x07,0x00,0x00,0xc0,0x03,0x00,0x00,0xe0,0x07,0x00,0x00,0xe0,
 0x07,0x00,0x00,0xe0,0x07,0x00,0x00,0xf0,0x0d,0x00,0x00,0xe0,0x07,0x00,0x00,
 0xb0,0x1d,0x00,0x00,0xe0,0x07,0x00,0x00,0x98,0x19,0x00,0x00,0xe0,0x07,0xfe,
 0xff,0xff,0xff,0xff,0x7f,0xe0,0x07,0x02,0x00,0xfc,0x3f,0x00,0x40,0xe0,0x07,
 0x02,0x00,0x00,0x00,0x00,0x40,0xe0,0x07,0x02,0x00,0x00,0x07,0x00,0x40,0xe0,
 0x07,0x02,0x00,0x80,0x05,0x00,0x40,0xe0,0x07,0x02,0x00,0x80,0x0a,0x00,0x40,
 0xe0,0x07,0x02,0x00,0xc0,0x1a,0x00,0x40,0xe0,0x07,0x02,0xc0,0xff,0xff,0x3f,
 0x40,0xe0,0x07,0x02,0x40,0x00,0x00,0x20,0x40,0xe0,0x07,0x02,0x40,0x00,0x00,
 0x20,0x40,0xe0,0x07,0x02,0x40,0x00,0x0c,0x20,0x40,0xe0,0x07,0x02,0x40,0x80,
 0x7f,0x20,0x40,0xe0,0x07,0x02,0x40,0x80,0x40,0x20,0x40,0xe0,0x07,0x02,0x40,
 0x80,0x40,0x20,0x40,0xe0,0x07,0x02,0x40,0x80,0x7f,0x20,0x40,0xe0,0x07,0x02,
 0x40,0x00,0x21,0x20,0x40,0xe0,0x07,0x02,0x40,0x80,0x40,0x20,0x40,0xe0,0x07,
 0x02,0xc0,0xff,0xff,0x3f,0x40,0xe0,0x07,0x02,0xc0,0xff,0xff,0x3f,0x40,0xe0,
 0x07,0x02,0x00,0x0c,0x04,0x0c,0x40,0xe0,0x07,0x02,0x00,0x06,0x04,0x08,0x40,
 0xe0,0x07,0x02,0x00,0x06,0x00,0x18,0x40,0xe0,0x07,0x02,0x00,0x03,0x00,0x10,
 0x40,0xe0,0x07,0x02,0x00,0x03,0x00,0x30,0x40,0xe0,0x07,0x02,0x00,0x00,0x00,
 0x00,0x40,0xe0,0x07,0x02,0x00,0x00,0x00,0x00,0x40,0xe0,0x07,0xfe,0xff,0xff,
 0xff,0xff,0x7f,0xe0,0x07,0x02,0x00,0x00,0x00,0x00,0x40,0xe0,0x07,0x02,0x00,
 0x00,0x00,0x00,0x40,0xe0,0x07,0xfe,0xff,0xff,0xff,0xff,0x7f,0xe0,0x07,0xc0,
 0x00,0x00,0x03,0x00,0x06,0xe0,0x07,0xc0,0x00,0x00,0x03,0x00,0x06,0xe0,0x07,
 0xe0,0x00,0x00,0x03,0x00,0x0e,0xe0,0x07,0x60,0x00,0x00,0x03,0x00,0x0c,0xe0,
 0x07,0x70,0x00,0x00,0x03,0x00,0x1c,0xe0,0x07,0x30,0x00,0x00,0x00,0x00,0x18,
 0xe0,0x07,0x38,0x00,0x00,0x00,0x00,0x38,0xe0,0x07,0x18,0x00,0x00,0x00,0x00,
 0x30,0xe0,0x07,0x1c,0x00,0x00,0x00,0x00,0x70,0xe0,0x07,0x0c,0x00,0x00,0x00,
 0x00,0x70,0xe0,0x07,0x0e,0x00,0x00,0x00,0x00,0xe0,0xe0,0x07,0x06,0x00,0x00,
 0x00,0x00,0xe0,0xe0,0x07,0x07,0x00,0x00,0x00,0x00,0xc0,0xe1,0x07,0x03,0x00,
 0x00,0x00,0x00,0xc0,0xe1,0x87,0x03,0x00,0x00,0x00,0x00,0x80,0xe1,0x87,0x01,
 0x00,0x00,0x00,0x00,0x80,0xe3,0xc7,0x01,0x00,0x00,0x00,0x00,0x00,0xe3,0xc7,
 0x00,0x00,0x00,0x00,0x00,0x00,0xe3,0x07,0x00,0x00,0x00,0x00,0x00,0x00,0xe0,
 0x0f,0x00,0x00,0x00,0x00,0x00,0x00,0xf0,0xff,0xff,0xff,0xff,0xff,0xff,0xff,
 0x7f,0xfe,0xff,0xff,0xff,0xff,0xff,0xff,0x7f,0xfc,0xff,0xff,0xff,0xff,0xff,
 0xff,0x7f};
