/*
static char sccs_id[] = "%W%  %H%";
*/

/*
 * Copyright 1988 by Siemens Research and Technology Laboratories, Princeton, NJ
 *
 *                         All Rights Reserved
 *
 * Permission to use, copy, modify, and distribute this software and its
 * documentation for any purpose and without fee is hereby granted,
 * provided that the above copyright notice appear in all copies and that
 * both that copyright notice and this permission notice appear in
 * supporting documentation, and that the name of Siemens Research and Technology
 * Laboratories not be used in advertising or publicity pertaining to
 * distribution of the software without specific, written prior permission.
 *
 *
 * SIEMENS DISCLAIMS ALL WARRANTIES WITH REGARD TO THIS SOFTWARE, INCLUDING
 * ALL IMPLIED WARRANTIES OF MERCHANTABILITY AND FITNESS, IN NO EVENT SHALL
 * SIEMENS BE LIABLE FOR ANY SPECIAL, INDIRECT OR CONSEQUENTIAL DAMAGES OR
 * ANY DAMAGES WHATSOEVER RESULTING FROM LOSS OF USE, DATA OR PROFITS,
 * WHETHER IN AN ACTION OF CONTRACT, NEGLIGENCE OR OTHER TORTIOUS ACTION,
 * ARISING OUT OF OR IN CONNECTION WITH THE USE OR PERFORMANCE OF THIS
 * SOFTWARE.
 */
#define perfmon_icon_width 64
#define perfmon_icon_height 64
static char perfmon_icon_bits[] = {
   0xff, 0xff, 0xff, 0xff, 0xff, 0xff, 0xff, 0xff, 0x01, 0x00, 0x00, 0x00,
   0x00, 0x00, 0x00, 0x80, 0x01, 0x00, 0x00, 0x00, 0x00, 0x00, 0x00, 0x80,
   0x01, 0x00, 0x00, 0x00, 0x00, 0x00, 0x00, 0x80, 0x01, 0x00, 0x00, 0x00,
   0x00, 0x00, 0x00, 0x80, 0x01, 0x00, 0x00, 0x00, 0x00, 0x00, 0x00, 0x80,
   0x01, 0x00, 0x00, 0x00, 0x00, 0x00, 0x00, 0x80, 0x01, 0x00, 0x00, 0x00,
   0x00, 0x00, 0x00, 0x80, 0x01, 0x00, 0x00, 0x00, 0x00, 0x00, 0x00, 0x80,
   0x01, 0x00, 0x00, 0x00, 0x00, 0x00, 0x00, 0x80, 0x01, 0x00, 0x00, 0x00,
   0x00, 0x00, 0x00, 0x80, 0x01, 0x00, 0x00, 0x00, 0x00, 0x00, 0x00, 0x80,
   0x01, 0x00, 0x00, 0x00, 0x00, 0x00, 0x00, 0x80, 0x01, 0x00, 0x00, 0x00,
   0x00, 0x00, 0x00, 0x80, 0x01, 0x00, 0x00, 0x00, 0x00, 0x00, 0x00, 0x80,
   0x01, 0x00, 0x00, 0x00, 0x00, 0x00, 0x00, 0x80, 0x01, 0x00, 0x00, 0x00,
   0x00, 0x00, 0x00, 0x80, 0x01, 0x00, 0x00, 0x00, 0x00, 0x00, 0x00, 0x80,
   0x01, 0x00, 0x00, 0x00, 0x00, 0x00, 0x00, 0x80, 0xf9, 0xff, 0xff, 0xff,
   0xff, 0xff, 0xff, 0x9f, 0x09, 0x00, 0x00, 0x00, 0x00, 0x00, 0x00, 0x90,
   0x09, 0x00, 0x60, 0x00, 0x00, 0x02, 0x00, 0x90, 0x09, 0x00, 0x60, 0x00,
   0x00, 0x02, 0x00, 0x90, 0x09, 0x00, 0x50, 0x00, 0x00, 0x85, 0x00, 0x90,
   0x09, 0x00, 0x90, 0x00, 0x00, 0x45, 0x21, 0x90, 0x09, 0x00, 0x90, 0x00,
   0x00, 0x25, 0x51, 0x90, 0x09, 0x00, 0x90, 0x00, 0x00, 0x25, 0x52, 0x90,
   0x09, 0x00, 0x90, 0x00, 0x80, 0x18, 0x8a, 0x90, 0x09, 0x40, 0x08, 0x01,
   0x80, 0x08, 0x8c, 0x90, 0x09, 0xc0, 0x08, 0x01, 0x80, 0x00, 0x04, 0x91,
   0x09, 0xa0, 0x08, 0x01, 0x48, 0x00, 0x00, 0x91, 0x09, 0x20, 0x09, 0x41,
   0x48, 0x00, 0x00, 0x91, 0x09, 0x14, 0x09, 0xc2, 0x54, 0x00, 0x00, 0x92,
   0x09, 0x14, 0x0a, 0x22, 0x55, 0x00, 0x00, 0x92, 0x09, 0x1a, 0x06, 0x22,
   0x23, 0x00, 0x00, 0x94, 0x09, 0x0a, 0x04, 0x3c, 0x22, 0x00, 0x00, 0x94,
   0xf9, 0x0b, 0x04, 0x00, 0x00, 0x00, 0x00, 0x90, 0x09, 0x00, 0x00, 0x00,
   0x00, 0x00, 0x00, 0x90, 0xf9, 0xff, 0xff, 0xff, 0xff, 0xff, 0xff, 0x9f,
   0x01, 0x00, 0x00, 0x00, 0x00, 0x00, 0x00, 0x80, 0x01, 0x00, 0x00, 0x00,
   0x80, 0x00, 0x01, 0x80, 0x01, 0x80, 0x89, 0x6c, 0xdc, 0x99, 0x03, 0x80,
   0x01, 0x40, 0x52, 0x92, 0x82, 0x20, 0x01, 0x80, 0x01, 0x40, 0x52, 0x92,
   0x8c, 0x38, 0x01, 0x80, 0x01, 0x80, 0x23, 0x92, 0x90, 0x24, 0x01, 0x80,
   0x01, 0x00, 0x22, 0x92, 0x8e, 0x38, 0x01, 0x80, 0x01, 0x40, 0x02, 0x00,
   0x00, 0x00, 0x00, 0x80, 0x01, 0x80, 0x01, 0x00, 0x00, 0x00, 0x00, 0x80,
   0x01, 0x00, 0x00, 0x00, 0x00, 0x00, 0x00, 0x80, 0x01, 0x00, 0x00, 0x00,
   0x00, 0x00, 0x00, 0x80, 0x01, 0x00, 0x00, 0x00, 0x00, 0x00, 0x00, 0x80,
   0x01, 0x00, 0x00, 0x00, 0x00, 0x00, 0x00, 0x80, 0x01, 0x00, 0x00, 0x00,
   0x00, 0x00, 0x00, 0x80, 0x01, 0x00, 0x00, 0x00, 0x00, 0x00, 0x00, 0x80,
   0x01, 0x00, 0x00, 0x00, 0x00, 0x00, 0x00, 0x80, 0x01, 0x00, 0x00, 0x00,
   0x00, 0x00, 0x00, 0x80, 0x01, 0x00, 0x00, 0x00, 0x00, 0x00, 0x00, 0x80,
   0x01, 0x00, 0x00, 0x00, 0x00, 0x00, 0x00, 0x80, 0x01, 0x00, 0x00, 0x00,
   0x00, 0x00, 0x00, 0x80, 0x01, 0x00, 0x00, 0x00, 0x00, 0x00, 0x00, 0x80,
   0x01, 0x00, 0x00, 0x00, 0x00, 0x00, 0x00, 0x80, 0x01, 0x00, 0x00, 0x00,
   0x00, 0x00, 0x00, 0x80, 0x01, 0x00, 0x00, 0x00, 0x00, 0x00, 0x00, 0x80,
   0xff, 0xff, 0xff, 0xff, 0xff, 0xff, 0xff, 0xff};
