/*
static char sccs_id[] = "%W%  %H%";
*/

/*
 * Copyright 1988 by Siemens Research and Technology Laboratories, Princeton, NJ
 *
 *                         All Rights Reserved
 *
 * Permission to use, copy, modify, and distribute this software and its
 * documentation for any purpose and without fee is hereby granted,
 * provided that the above copyright notice appear in all copies and that
 * both that copyright notice and this permission notice appear in
 * supporting documentation, and that the name of Siemens Research and Technology
 * Laboratories not be used in advertising or publicity pertaining to
 * distribution of the software without specific, written prior permission.
 *
 *
 * SIEMENS DISCLAIMS ALL WARRANTIES WITH REGARD TO THIS SOFTWARE, INCLUDING
 * ALL IMPLIED WARRANTIES OF MERCHANTABILITY AND FITNESS, IN NO EVENT SHALL
 * SIEMENS BE LIABLE FOR ANY SPECIAL, INDIRECT OR CONSEQUENTIAL DAMAGES OR
 * ANY DAMAGES WHATSOEVER RESULTING FROM LOSS OF USE, DATA OR PROFITS,
 * WHETHER IN AN ACTION OF CONTRACT, NEGLIGENCE OR OTHER TORTIOUS ACTION,
 * ARISING OUT OF OR IN CONNECTION WITH THE USE OR PERFORMANCE OF THIS
 * SOFTWARE.
 */
#define 64x64_width 16
#define 64x64_height 16
static char 64x64_bits[] = {
   0x00, 0x38, 0x00, 0x7c, 0x00, 0xfe, 0x00, 0xfe, 0x00, 0xfe, 0x00, 0x7c,
   0x00, 0x3a, 0x00, 0x01, 0x80, 0x00, 0x40, 0x1e, 0x20, 0x10, 0x10, 0x08,
   0x08, 0x04, 0x00, 0x02, 0x00, 0x1e, 0x00, 0x00};
