#define noname_width 68
#define noname_height 76
static char noname_bits[] = {
    0xff, 0xff, 0xff, 0xff, 0x1f, 0x06, 0xf0, 0x1f, 0x00, 0x00, 0x00, 0x00, 
    0x00, 0xf0, 0x01, 0x30, 0x18, 0x00, 0x00, 0x00, 0x00, 0x00, 0x70, 0x00, 
    0x30, 0x18, 0x00, 0x00, 0x00, 0x00, 0x00, 0x00, 0x00, 0x20, 0x08, 0x00, 
    0x00, 0x00, 0x00, 0x00, 0x0e, 0x00, 0x17, 0x08, 0x00, 0x00, 0x00, 0x00, 
    0x80, 0x0f, 0x00, 0x0f, 0x04, 0x00, 0x00, 0x00, 0x00, 0x60, 0xf8, 0xff, 
    0x01, 0x04, 0x00, 0x00, 0x00, 0x00, 0x10, 0x08, 0x00, 0x01, 0x02, 0x00, 
    0x00, 0x00, 0x00, 0x08, 0x08, 0x00, 0x01, 0x01, 0x00, 0x00, 0x00, 0x00, 
    0x04, 0x08, 0x00, 0x81, 0x00, 0x00, 0x00, 0x00, 0x00, 0x02, 0xf8, 0xff, 
    0x61, 0x00, 0x00, 0xc0, 0x1f, 0x00, 0x02, 0x0f, 0x00, 0x1f, 0x00, 0x00, 
    0xf0, 0x7f, 0x00, 0x81, 0x0e, 0x00, 0x07, 0x00, 0x00, 0x38, 0xe0, 0x00, 
    0x41, 0x00, 0x00, 0x00, 0x00, 0x00, 0x0c, 0x82, 0x81, 0xc1, 0x00, 0x00, 
    0x00, 0x00, 0x00, 0x06, 0x02, 0x83, 0xc1, 0x00, 0x00, 0x00, 0x00, 0x00, 
    0x13, 0x48, 0x86, 0xff, 0x00, 0x00, 0x00, 0x00, 0x00, 0x23, 0x28, 0x06, 
    0x22, 0x00, 0x00, 0x00, 0x00, 0x00, 0x01, 0x04, 0x0c, 0x22, 0x00, 0x00, 
    0x00, 0x00, 0x00, 0x01, 0x04, 0x0c, 0x22, 0x00, 0x00, 0x00, 0x00, 0x00, 
    0x01, 0x02, 0x0c, 0x22, 0x00, 0x00, 0x00, 0x00, 0x00, 0x01, 0x82, 0x0d, 
    0x22, 0x00, 0x00, 0x00, 0x00, 0x00, 0x01, 0x00, 0x0c, 0x22, 0x00, 0x00, 
    0x00, 0x00, 0x00, 0x01, 0x00, 0x8c, 0xff, 0x00, 0xf0, 0x3f, 0x00, 0x00, 
    0x01, 0x00, 0x8c, 0xc1, 0x00, 0xf0, 0x3f, 0x00, 0x00, 0x23, 0x20, 0x86, 
    0xc1, 0x00, 0x00, 0x03, 0x00, 0x00, 0x13, 0x40, 0x06, 0x41, 0x00, 0x00, 
    0x03, 0x00, 0x00, 0x06, 0x02, 0x03, 0x81, 0x0e, 0x1c, 0x03, 0x00, 0x00, 
    0x0c, 0x82, 0x01, 0x01, 0x0f, 0xfc, 0x1f, 0x00, 0x00, 0x38, 0xe0, 0x00, 
    0x01, 0xf8, 0x07, 0x60, 0x00, 0x00, 0xf0, 0x7f, 0x00, 0x01, 0x08, 0x04, 
    0x80, 0x00, 0x00, 0xc0, 0x1f, 0x00, 0x01, 0x08, 0x04, 0x00, 0x01, 0x00, 
    0x00, 0x00, 0x00, 0x01, 0x08, 0x04, 0x00, 0x02, 0x00, 0x00, 0x00, 0x00, 
    0x01, 0xf8, 0x07, 0x00, 0x04, 0x00, 0x00, 0x00, 0x00, 0x01, 0x0f, 0xfc, 
    0x0f, 0x04, 0x00, 0x00, 0x00, 0x00, 0x81, 0x0e, 0x1c, 0x10, 0x08, 0x00, 
    0x00, 0x00, 0x00, 0x41, 0x00, 0x00, 0x20, 0x08, 0x00, 0x00, 0x00, 0x80, 
    0xc1, 0x00, 0x00, 0x30, 0x18, 0x00, 0x00, 0x00, 0x80, 0xc1, 0x00, 0x00, 
    0x30, 0x18, 0x00, 0x07, 0x00, 0x80, 0xff, 0x00, 0x00, 0xf0, 0x1f, 0x00, 
    0x1f, 0x00, 0x00, 0x22, 0x00, 0x00, 0x00, 0x00, 0x00, 0x61, 0x00, 0x00, 
    0x22, 0x00, 0x00, 0x80, 0x00, 0x00, 0x81, 0x00, 0x00, 0x22, 0x00, 0x00, 
    0x80, 0x00, 0x00, 0x01, 0x01, 0x00, 0x22, 0x00, 0x00, 0x40, 0x01, 0x00, 
    0x01, 0x02, 0x00, 0x22, 0x00, 0x00, 0x40, 0x01, 0x00, 0x01, 0x04, 0x00, 
    0x22, 0x00, 0x00, 0x80, 0x00, 0x00, 0x0f, 0x04, 0x00, 0x22, 0x00, 0x00, 
    0x00, 0x00, 0x00, 0x17, 0x08, 0x00, 0x22, 0x00, 0x00, 0x00, 0x02, 0x00, 
    0x20, 0x08, 0x00, 0x22, 0x00, 0x00, 0x00, 0x02, 0x00, 0x30, 0x18, 0x00, 
    0x22, 0x00, 0x00, 0x00, 0x05, 0x00, 0x30, 0x18, 0x00, 0x22, 0x00, 0x00, 
    0x00, 0x05, 0x00, 0xf0, 0x1f, 0x00, 0x22, 0x00, 0x00, 0x00, 0x02, 0x00, 
    0x40, 0x04, 0x00, 0x22, 0x00, 0x00, 0x00, 0x00, 0x00, 0x40, 0x04, 0x00, 
    0x22, 0x00, 0x00, 0x00, 0x00, 0x00, 0x40, 0x04, 0x00, 0x22, 0x00, 0x00, 
    0x00, 0x01, 0x00, 0x40, 0x04, 0x00, 0x22, 0x00, 0x00, 0x00, 0x01, 0x00, 
    0x40, 0x04, 0x00, 0x22, 0x00, 0x00, 0x80, 0x02, 0x00, 0x40, 0x04, 0x00, 
    0x22, 0x00, 0x00, 0x80, 0x02, 0x00, 0x40, 0x04, 0x00, 0x22, 0x00, 0x00, 
    0x00, 0x01, 0x00, 0x40, 0x04, 0x00, 0x22, 0x00, 0x00, 0x00, 0x00, 0x00, 
    0x40, 0x04, 0x00, 0x22, 0x00, 0x00, 0x00, 0x00, 0x00, 0x40, 0x04, 0x00, 
    0x22, 0x00, 0x00, 0x00, 0x00, 0x00, 0x40, 0x04, 0x00, 0x22, 0x70, 0xe0, 
    0xff, 0xff, 0x0f, 0x40, 0x04, 0x00, 0x22, 0xf0, 0x41, 0x00, 0x00, 0x04, 
    0x7f, 0xfc, 0xff, 0xff, 0x1f, 0x86, 0x00, 0x00, 0x02, 0x40, 0x04, 0x00, 
    0x00, 0x10, 0x08, 0x01, 0x00, 0x01, 0x40, 0x04, 0x00, 0x00, 0x10, 0x10, 
    0x02, 0x80, 0x00, 0x40, 0x04, 0x00, 0x00, 0x10, 0x20, 0x04, 0x40, 0x00, 
    0x7f, 0xfc, 0xff, 0xff, 0x1f, 0x40, 0x08, 0x20, 0x00, 0x40, 0x04, 0x00, 
    0x22, 0xf0, 0x40, 0x10, 0x10, 0x00, 0x40, 0x04, 0x00, 0x22, 0x70, 0x81, 
    0x20, 0x08, 0x00, 0x40, 0x04, 0x00, 0x22, 0x00, 0x82, 0x40, 0x04, 0x00, 
    0x40, 0x04, 0x00, 0x22, 0x00, 0x83, 0x41, 0x04, 0x00, 0x40, 0x04, 0x00, 
    0x22, 0x00, 0x83, 0x41, 0x04, 0x00, 0x40, 0x04, 0x00, 0x22, 0x00, 0xff, 
    0x41, 0x04, 0x00, 0x40, 0x04, 0x00, 0x22, 0x00, 0x44, 0x40, 0x04, 0x00};
