#define noname_width 54
#define noname_height 32
static char noname_bits[] = {
    0xff, 0xff, 0x07, 0x00, 0x7f, 0x00, 0x3f, 0xff, 0xff, 0x07, 0x00, 0x1c, 
    0x00, 0x0c, 0x07, 0x07, 0x07, 0x00, 0x1c, 0x00, 0x04, 0x03, 0x07, 0x06, 
    0x00, 0x38, 0x00, 0x06, 0x01, 0x07, 0x04, 0x00, 0x70, 0x00, 0x03, 0x01, 
    0x07, 0x04, 0x00, 0x70, 0x80, 0x01, 0x00, 0x07, 0x00, 0x00, 0xe0, 0x80, 
    0x00, 0x00, 0x07, 0xfe, 0xff, 0xc1, 0xc1, 0x00, 0x00, 0x07, 0xfc, 0xff, 
    0xc1, 0x61, 0x00, 0x00, 0x07, 0x1c, 0xc0, 0x81, 0x33, 0x00, 0x00, 0x07, 
    0x1c, 0x80, 0x01, 0x17, 0x00, 0x00, 0x07, 0x1c, 0x00, 0x01, 0x1f, 0x00, 
    0x00, 0x07, 0x1c, 0x00, 0x01, 0x0e, 0x00, 0x00, 0x07, 0x1c, 0x00, 0x00, 
    0x1e, 0x00, 0x00, 0x07, 0x1c, 0x00, 0x00, 0x1e, 0x00, 0x00, 0x07, 0x1c, 
    0x00, 0x00, 0x3b, 0x00, 0x00, 0x07, 0x1c, 0x08, 0x80, 0x71, 0x00, 0x00, 
    0x07, 0x1c, 0x08, 0xc0, 0x70, 0x00, 0x00, 0x07, 0xfc, 0x0f, 0x40, 0xe0, 
    0x00, 0x00, 0x07, 0xfc, 0x0f, 0x60, 0xc0, 0x01, 0x00, 0x07, 0x1c, 0x08, 
    0x30, 0xc0, 0x01, 0x00, 0x07, 0x1c, 0x08, 0x18, 0x80, 0x03, 0x00, 0x07, 
    0x1c, 0x00, 0x08, 0x00, 0x07, 0x00, 0x07, 0x1c, 0x00, 0x0c, 0x00, 0x07, 
    0xc0, 0x1f, 0x1c, 0x00, 0x7f, 0x80, 0x3f, 0x00, 0x00, 0x1c, 0x00, 0x00, 
    0x00, 0x00, 0x00, 0x00, 0x1c, 0x00, 0x01, 0x00, 0x00, 0x00, 0x00, 0x1c, 
    0x00, 0x01, 0x00, 0x00, 0x00, 0x00, 0x1c, 0x80, 0x01, 0x00, 0x00, 0x00, 
    0x00, 0x1c, 0xc0, 0x01, 0x00, 0x00, 0x00, 0x00, 0xfc, 0xff, 0x01, 0x00, 
    0x00, 0x00, 0x00, 0xfe, 0xff, 0x01, 0x00, 0x00};
