#define timex_width 64
#define timex_height 64
static char timex_bits[] = {
 0xff,0xff,0xff,0xff,0xff,0xff,0xff,0xff,0xff,0xff,0xff,0xff,0xff,0xff,0xff,
 0xff,0xff,0xff,0xff,0x07,0xe0,0xff,0xff,0xff,0xff,0xff,0x7f,0x00,0x00,0xfe,
 0xff,0xff,0xff,0xff,0x0f,0x40,0x06,0xf0,0xff,0xff,0xff,0xff,0x03,0x40,0x09,
 0xc0,0xff,0xff,0xff,0xff,0x00,0x40,0x08,0x00,0xff,0xff,0xff,0x7f,0x00,0x40,
 0x06,0x00,0xfe,0xff,0xff,0x1f,0x24,0x40,0x01,0x10,0xf8,0xff,0xff,0x0f,0x24,
 0x40,0x01,0x10,0xf0,0xff,0xff,0x07,0x24,0x40,0x0f,0x10,0xe0,0xff,0xff,0x03,
 0x24,0x00,0x00,0x10,0xc0,0xff,0xff,0x01,0x24,0x00,0x00,0x10,0x80,0xff,0xff,
 0x00,0x24,0x00,0x00,0x10,0x00,0xff,0xff,0x00,0x24,0x00,0x00,0x10,0x00,0xff,
 0x7f,0x00,0x00,0x00,0x00,0x00,0x00,0xfe,0x3f,0x00,0x00,0x00,0x00,0x00,0x00,
 0xfc,0x3f,0x32,0x00,0x00,0x00,0x00,0x30,0xfc,0x1f,0x4a,0x00,0x00,0x00,0x00,
 0x48,0xf8,0x1f,0x4a,0x00,0x00,0x00,0x00,0x40,0xf8,0x0f,0x4a,0x00,0x00,0x00,
 0x00,0x30,0xf0,0x0f,0x4a,0x00,0x00,0x00,0x00,0x08,0xf0,0x0f,0x4a,0x00,0x00,
 0x00,0x00,0x08,0xf0,0x07,0x32,0x00,0x00,0x00,0x00,0x78,0xe0,0x07,0x00,0x00,
 0x00,0x00,0x00,0x00,0xe0,0x07,0x00,0x00,0x00,0x00,0x00,0x00,0xe0,0x07,0x00,
 0x00,0x00,0x00,0x00,0x00,0xe0,0x03,0x00,0x00,0x00,0x00,0x00,0x00,0xc0,0xc3,
 0x00,0x00,0x00,0x00,0x00,0x00,0xc0,0x23,0x01,0x00,0x00,0x00,0x00,0x00,0xc3,
 0x23,0x01,0x00,0x80,0x01,0x00,0x80,0xc4,0xc3,0x01,0x00,0xc0,0x03,0x00,0x00,
 0xc4,0x03,0x01,0x00,0xc0,0x03,0x00,0x00,0xc3,0x23,0x01,0x00,0x80,0x01,0x00,
 0x00,0xc4,0xc3,0x00,0x00,0x00,0x00,0x00,0x80,0xc4,0x03,0x00,0x00,0x00,0x00,
 0x00,0x00,0xc3,0x03,0x00,0x00,0x00,0x00,0x00,0x00,0xc0,0x07,0x00,0x00,0x00,
 0x00,0x00,0x00,0xe0,0x07,0x00,0x00,0x00,0x00,0x00,0x00,0xe0,0x07,0x00,0x00,
 0x00,0x00,0x00,0x00,0xe0,0x07,0x0c,0xe0,0x2b,0xba,0x04,0x00,0xe0,0x0f,0x12,
 0x80,0x68,0x0b,0x03,0x48,0xf0,0x0f,0x12,0x80,0x68,0x1b,0x03,0x48,0xf0,0x0f,
 0x0c,0x80,0xa8,0x0a,0x03,0x48,0xf0,0x1f,0x12,0x80,0xa8,0xba,0x04,0x78,0xf8,
 0x1f,0x12,0x00,0x00,0x00,0x00,0x40,0xf8,0x1f,0x0c,0x00,0x00,0x00,0x00,0x40,
 0xfc,0x3f,0x00,0x00,0x00,0x00,0x00,0x40,0xfc,0x7f,0x00,0x00,0x00,0x00,0x00,
 0x00,0xfe,0xff,0x00,0x3c,0x00,0x00,0x3c,0x00,0xff,0xff,0x00,0x20,0x00,0x00,
 0x04,0x00,0xff,0xff,0x01,0x20,0x00,0x00,0x04,0x80,0xff,0xff,0x03,0x10,0x00,
 0x00,0x1c,0xc0,0xff,0xff,0x07,0x10,0x80,0x01,0x20,0xe0,0xff,0xff,0x0f,0x10,
 0x40,0x02,0x24,0xf0,0xff,0xff,0x1f,0x10,0x40,0x00,0x18,0xf8,0xff,0xff,0x7f,
 0x00,0xc0,0x01,0x00,0xfe,0xff,0xff,0xff,0x00,0x40,0x02,0x00,0xff,0xff,0xff,
 0xff,0x03,0x40,0x02,0xc0,0xff,0xff,0xff,0xff,0x0f,0x80,0x01,0xf0,0xff,0xff,
 0xff,0xff,0x7f,0x00,0x00,0xfe,0xff,0xff,0xff,0xff,0xff,0x07,0xe0,0xff,0xff,
 0xff,0xff,0xff,0xff,0xff,0xff,0xff,0xff,0xff,0xff,0xff,0xff,0xff,0xff,0xff,
 0xff,0xff};
