#define tombstone_width 64
#define tombstone_height 64
static char tombstone_bits[] = {
 0x00,0x00,0x00,0xff,0x01,0x00,0x00,0x00,0x00,0x00,0xc0,0xfa,0x07,0x00,0x00,
 0x00,0x00,0x00,0x70,0x2f,0x3a,0x00,0x00,0x00,0x00,0x00,0xbc,0x89,0xe8,0x00,
 0x00,0x00,0x00,0x00,0x76,0x11,0x11,0x01,0x00,0x00,0x00,0x00,0x6b,0x44,0x44,
 0x02,0x00,0x00,0x00,0x80,0x36,0x22,0x22,0x06,0x00,0x00,0x00,0x40,0x8d,0x88,
 0x88,0x0c,0x00,0x00,0x00,0xc0,0x16,0x11,0x11,0x11,0x00,0x00,0x00,0xa0,0x45,
 0x44,0x44,0x14,0x00,0x00,0x00,0xe0,0x22,0x22,0x22,0x22,0x00,0x00,0x00,0xb0,
 0x8b,0x88,0x88,0x28,0x00,0x00,0x00,0xd0,0x12,0x11,0x11,0x31,0x00,0x00,0x00,
 0xb8,0x45,0x44,0x44,0x44,0x00,0x00,0x00,0x78,0x23,0x22,0x22,0x62,0x00,0x00,
 0x00,0xa8,0x89,0x88,0x88,0x48,0x00,0x00,0x00,0x58,0x11,0x11,0x11,0x51,0x00,
 0x00,0x00,0xa8,0x45,0x44,0x44,0x44,0x00,0x00,0x00,0x58,0x23,0x22,0x22,0x62,
 0x00,0x00,0x00,0xa8,0x89,0x88,0x88,0x48,0x00,0x00,0x00,0x58,0xff,0xff,0xff,
 0x7f,0x00,0x00,0x00,0xa8,0x03,0x00,0x00,0x60,0x00,0x00,0x00,0x58,0xfb,0xc0,
 0xe3,0x67,0x00,0x00,0x00,0xa8,0x33,0x81,0xc1,0x6c,0x00,0x00,0x00,0x58,0x33,
 0x83,0xc1,0x6c,0x00,0x00,0x00,0xa8,0x33,0x83,0xc1,0x6c,0x00,0x00,0x00,0x58,
 0x33,0x81,0xc1,0x6c,0x00,0x00,0x00,0xa8,0xf3,0x80,0xc1,0x67,0x00,0x00,0x00,
 0x58,0xb3,0x80,0xc1,0x60,0x00,0x00,0x00,0xa8,0xb3,0x81,0xc1,0x60,0x00,0x00,
 0x00,0x58,0xb3,0x81,0xc1,0x60,0x00,0x00,0x00,0xa8,0x33,0x97,0xc9,0x64,0x00,
 0x00,0x00,0x58,0x7b,0xd6,0xeb,0x65,0x00,0x00,0x00,0xa8,0x03,0x00,0x00,0x60,
 0x00,0x00,0x00,0x58,0xff,0xff,0xff,0x7f,0x00,0x00,0x00,0xa8,0x89,0x88,0x88,
 0x48,0x00,0x00,0x00,0x58,0x11,0x11,0x11,0x51,0x00,0x00,0x00,0xa8,0x45,0x44,
 0x44,0x44,0x00,0x00,0x00,0x58,0x23,0x22,0x22,0x62,0x00,0x00,0x00,0xa8,0x89,
 0x88,0x88,0x48,0x00,0x00,0x00,0x58,0x11,0x11,0x11,0x51,0x00,0x00,0x00,0xa8,
 0x45,0x44,0x44,0x44,0x00,0x00,0x80,0x58,0x23,0x22,0x22,0x62,0x00,0x00,0x80,
 0xac,0x89,0x88,0x88,0x48,0x00,0x00,0x40,0x5d,0x11,0x11,0x11,0x51,0x08,0x00,
 0x40,0xab,0x45,0x44,0x44,0x44,0x08,0x00,0x40,0xfb,0x33,0x22,0x22,0x63,0x1c,
 0x00,0x90,0xae,0x99,0x8a,0xa8,0x69,0x9c,0x00,0xa0,0xfe,0xd9,0x57,0x59,0xd1,
 0x6a,0x00,0xa0,0xfa,0x5d,0x5f,0xdd,0xf5,0x7a,0x00,0xc0,0xfc,0xeb,0xba,0x2a,
 0xeb,0x75,0x00,0x40,0xd5,0xff,0xff,0xff,0xff,0x73,0x00,0x80,0xc3,0x74,0x75,
 0x2b,0xf5,0x9a,0x00,0x80,0x83,0x34,0x75,0x5d,0x8b,0x95,0x00,0x00,0x00,0x18,
 0x2e,0x49,0x3d,0x0a,0x00,0x00,0x00,0x00,0x68,0x35,0x12,0x00,0x00,0x00,0x00,
 0x00,0x00,0x43,0x00,0x00,0x00,0x00,0x00,0x00,0x00,0x01,0x00,0x00,0x00,0x00,
 0x00,0x00,0x00,0x00,0x00,0x00,0x00,0x00,0x00,0x00,0x00,0x00,0x00,0x00,0x00,
 0x00,0x00,0x00,0x00,0x00,0x00,0x00,0x00,0x00,0x00,0x00,0x00,0x00,0x00,0x00,
 0x00,0x00,0x00,0x00,0x00,0x00,0x00,0x00,0x00,0x00,0x00,0x00,0x00,0x00,0x00,
 0x00,0x00};
