#define noname_width 64
#define noname_height 64
static char noname_bits[] = {
    0xff, 0xff, 0xff, 0xff, 0xff, 0xff, 0xff, 0xff, 0x01, 0x00, 0x00, 0x00, 
    0x00, 0x00, 0x00, 0x80, 0x01, 0x00, 0x00, 0x00, 0x00, 0x00, 0x00, 0x80, 
    0xe1, 0xff, 0xff, 0xff, 0xff, 0xff, 0xff, 0x83, 0x11, 0x00, 0x00, 0x00, 
    0x00, 0x00, 0x70, 0x84, 0x09, 0x00, 0x00, 0x00, 0x00, 0x00, 0x18, 0x88, 
    0x05, 0x00, 0x00, 0x00, 0x00, 0x00, 0x04, 0x90, 0x05, 0x00, 0x00, 0x00, 
    0x00, 0x00, 0x04, 0x90, 0x05, 0x00, 0x00, 0x00, 0x00, 0x00, 0xc2, 0x90, 
    0x05, 0x00, 0x00, 0x00, 0x00, 0x00, 0x22, 0x91, 0x09, 0x00, 0x00, 0x00, 
    0x00, 0x00, 0x02, 0x91, 0x09, 0x00, 0x00, 0x00, 0x00, 0x00, 0x04, 0x91, 
    0x11, 0x00, 0x00, 0x00, 0x00, 0x00, 0x84, 0x90, 0xe1, 0xff, 0xff, 0xff, 
    0xff, 0xff, 0x7f, 0x88, 0x01, 0x20, 0x00, 0x00, 0x00, 0x00, 0x00, 0x88, 
    0x01, 0x20, 0x00, 0x00, 0x1c, 0xf0, 0x00, 0x88, 0x01, 0x10, 0xc0, 0x1f, 
    0xe3, 0x9d, 0x01, 0x84, 0x01, 0x10, 0x3c, 0xf0, 0x01, 0x00, 0x06, 0x84, 
    0x01, 0x10, 0x00, 0x00, 0x00, 0x00, 0x00, 0x84, 0x01, 0x08, 0xe0, 0x07, 
    0x70, 0xf0, 0x03, 0x82, 0x01, 0x08, 0x9e, 0xec, 0xcb, 0x1f, 0x04, 0x82, 
    0x01, 0x04, 0x00, 0x10, 0x04, 0x00, 0x00, 0x81, 0x01, 0x04, 0x70, 0x00, 
    0x00, 0xd8, 0x01, 0x81, 0x01, 0x04, 0x9f, 0xfb, 0xc7, 0x27, 0x02, 0x81, 
    0x01, 0x82, 0x00, 0x04, 0x38, 0x01, 0x80, 0x80, 0x01, 0x02, 0x00, 0x00, 
    0x00, 0x00, 0x80, 0x80, 0x01, 0x41, 0x18, 0x08, 0x80, 0x13, 0x40, 0x80, 
    0x01, 0x41, 0x67, 0xfd, 0xf3, 0xee, 0x40, 0x80, 0x81, 0x80, 0x80, 0x00, 
    0x0e, 0x00, 0x20, 0x80, 0x81, 0x00, 0x00, 0x00, 0x00, 0x00, 0x20, 0x80, 
    0x81, 0x00, 0x00, 0x00, 0x00, 0x00, 0x20, 0x80, 0x41, 0x00, 0x00, 0x00, 
    0x00, 0x00, 0x10, 0x80, 0x41, 0x00, 0x00, 0x00, 0x00, 0x00, 0x10, 0x80, 
    0x41, 0x00, 0x00, 0x00, 0x00, 0x00, 0x10, 0x80, 0x21, 0x00, 0x00, 0x00, 
    0x00, 0x00, 0x08, 0x80, 0x21, 0x00, 0x00, 0x00, 0x00, 0x00, 0x08, 0x80, 
    0x11, 0x00, 0x00, 0x00, 0x00, 0x00, 0x04, 0x80, 0x11, 0x00, 0x00, 0x00, 
    0x00, 0x00, 0x04, 0x80, 0x11, 0x00, 0x00, 0x00, 0x00, 0x00, 0x04, 0x80, 
    0x11, 0x00, 0x00, 0x00, 0x00, 0x00, 0x04, 0x80, 0x09, 0x00, 0x00, 0x00, 
    0x00, 0x00, 0x02, 0x80, 0x09, 0x00, 0x00, 0x00, 0x00, 0x00, 0x02, 0x80, 
    0x09, 0x00, 0x00, 0x00, 0x00, 0x00, 0x02, 0x80, 0x05, 0x00, 0x00, 0x00, 
    0x00, 0x00, 0x01, 0x80, 0x05, 0x93, 0xc7, 0x61, 0x18, 0x00, 0x01, 0x80, 
    0x05, 0x60, 0x24, 0x9e, 0x37, 0x04, 0x01, 0x80, 0x05, 0x00, 0x18, 0x0c, 
    0xc0, 0x03, 0x01, 0x80, 0x05, 0x00, 0x00, 0x00, 0x00, 0x00, 0x01, 0x80, 
    0x05, 0x01, 0x00, 0x00, 0x00, 0x00, 0x01, 0x80, 0xc5, 0x42, 0x38, 0x00, 
    0x00, 0x08, 0x01, 0x80, 0x05, 0xbc, 0x6f, 0xf8, 0x3c, 0x0c, 0xff, 0x8f, 
    0x05, 0x08, 0x80, 0x07, 0xc3, 0x07, 0x81, 0x90, 0x05, 0x00, 0x00, 0x00, 
    0x00, 0x00, 0x41, 0xa0, 0x05, 0x40, 0x00, 0x00, 0x00, 0x00, 0x41, 0xa0, 
    0x85, 0xe7, 0x7c, 0x10, 0x18, 0x04, 0x41, 0xa2, 0x85, 0x94, 0x83, 0x6e, 
    0xae, 0x1f, 0x81, 0xa1, 0x09, 0x08, 0x00, 0x83, 0xe1, 0x10, 0x02, 0xa0, 
    0x09, 0x00, 0x00, 0x00, 0x00, 0x00, 0x02, 0x90, 0x31, 0x00, 0x00, 0x00, 
    0x00, 0x00, 0x0c, 0x88, 0xc1, 0xff, 0xff, 0xff, 0xff, 0xff, 0xff, 0x87, 
    0x01, 0x00, 0x00, 0x00, 0x00, 0x00, 0x00, 0x80, 0x01, 0x00, 0x00, 0x00, 
    0x00, 0x00, 0x00, 0x80, 0x01, 0x00, 0x00, 0x00, 0x00, 0x00, 0x00, 0x80, 
    0xff, 0xff, 0xff, 0xff, 0xff, 0xff, 0xff, 0xff};
