#define xterm_width 74
#define xterm_height 52
static char xterm_bits[] = {
 0x00,0x00,0x00,0x00,0x00,0x00,0x00,0x00,0x00,0x00,0x00,0x00,0x00,0x00,0x00,
 0x00,0x00,0x00,0x00,0x00,0xf8,0xff,0xff,0xff,0xff,0xff,0xff,0xff,0x7f,0x00,
 0xfc,0xff,0xff,0xff,0xff,0xff,0xff,0xff,0xff,0x00,0x1c,0x00,0x00,0x00,0x00,
 0x00,0x00,0x00,0xe0,0x00,0x0c,0x00,0x00,0x06,0x00,0x00,0x00,0x00,0xc0,0x00,
 0x0c,0x00,0x00,0x06,0x00,0x00,0x00,0x00,0xc0,0x00,0x0c,0x00,0x00,0x06,0x00,
 0x00,0x00,0x00,0xc0,0x00,0x0c,0x00,0xb3,0x1f,0x3e,0x76,0xda,0x00,0xc0,0x00,
 0x0c,0x00,0x33,0x06,0x63,0xde,0xb6,0x01,0xc0,0x00,0x0c,0x00,0x1e,0x06,0x63,
 0x06,0xb6,0x01,0xc0,0x00,0x0c,0x00,0x0c,0x06,0x7f,0x06,0xb6,0x01,0xc0,0x00,
 0x0c,0x00,0x1e,0x06,0x03,0x06,0xb6,0x01,0xc0,0x00,0x0c,0x00,0x33,0x36,0x63,
 0x06,0xb6,0x01,0xc0,0x00,0x0c,0x00,0x33,0x1c,0x3e,0x06,0xb6,0x01,0xc0,0x00,
 0x0c,0x00,0x00,0x00,0x00,0x00,0x00,0x00,0xc0,0x00,0x0c,0x00,0x00,0x00,0x00,
 0x00,0x00,0x00,0xc0,0x00,0x0c,0x00,0x00,0x00,0x00,0x00,0x00,0x00,0xc0,0x00,
 0x0c,0x00,0x00,0x00,0x00,0x00,0x00,0x00,0xc0,0x00,0x0c,0x00,0x00,0x00,0x00,
 0x00,0x00,0x00,0xc0,0x00,0x0c,0xff,0x30,0x87,0x07,0x1e,0x00,0x00,0xc0,0x00,
 0x0c,0x00,0x00,0x00,0x00,0x00,0x00,0x00,0xc0,0x00,0x0c,0x00,0x00,0x00,0x00,
 0x00,0x00,0x00,0xc0,0x00,0x0c,0xc7,0xf7,0xf2,0x8f,0x07,0x1c,0x00,0xc0,0x00,
 0x0c,0x00,0x00,0x00,0x00,0x00,0x00,0x00,0xc0,0x00,0x0c,0x00,0x00,0x00,0x00,
 0x00,0x00,0x00,0xc0,0x00,0x0c,0xff,0xfd,0x1b,0x8f,0xf7,0x01,0x00,0xc0,0x00,
 0x0c,0x00,0x00,0x00,0x00,0x00,0x00,0x00,0xc0,0x00,0x0c,0x00,0x00,0x00,0x00,
 0x00,0x00,0x00,0xc0,0x00,0x0c,0x8f,0xee,0xe7,0x99,0xff,0x1f,0x00,0xc0,0x00,
 0x0c,0x00,0x00,0x00,0x00,0x00,0x00,0x00,0xc0,0x00,0x1c,0x00,0x00,0x00,0x00,
 0x00,0x00,0x00,0xe0,0x00,0xf8,0xff,0xff,0xff,0xff,0xff,0xff,0xff,0x7f,0x00,
 0xf0,0xff,0xff,0xff,0xff,0xff,0xff,0xff,0x3f,0x00,0x00,0x00,0x00,0x00,0x00,
 0x00,0x00,0x00,0x00,0x00,0x00,0x00,0x00,0x00,0x00,0x00,0x00,0x00,0x00,0x00,
 0x00,0xe0,0xff,0xff,0xff,0xff,0xff,0x1f,0x00,0x00,0x00,0x20,0x00,0x00,0x00,
 0x00,0x00,0x10,0x00,0x00,0x00,0x20,0x14,0x6a,0xdb,0x56,0xa8,0x10,0x00,0x00,
 0x00,0x20,0x00,0x00,0x00,0x00,0x00,0x10,0x00,0x00,0x00,0x20,0x14,0x54,0x55,
 0x55,0xa8,0x10,0x00,0x00,0x00,0x20,0x00,0x00,0x00,0x00,0x00,0x10,0x00,0x00,
 0x00,0x20,0x14,0xaa,0xaa,0x2a,0xa8,0x10,0x00,0x00,0x00,0x20,0x00,0x00,0x00,
 0x00,0x00,0x10,0x00,0x00,0x00,0x20,0x14,0x54,0x55,0x55,0xa8,0x10,0x00,0x00,
 0x00,0x20,0x00,0x00,0x00,0x00,0x00,0x10,0x00,0x00,0x00,0x20,0x14,0x00,0x00,
 0x00,0xa8,0x10,0x00,0x00,0x00,0x20,0x00,0xea,0xff,0x57,0x00,0x10,0x00,0x00,
 0x00,0x20,0x00,0x00,0x00,0x00,0x00,0x10,0x00,0x00,0x00,0xe0,0xff,0xff,0xff,
 0xff,0xff,0x1f,0x00,0x00,0x00,0x00,0x00,0x00,0x00,0x00,0x00,0x00,0x00,0x00,
 0x00,0x00,0x00,0x00,0x00,0x00,0x00,0x00,0x00,0x00};
